X: 125
T:Miss Syme Wilson
B:William Marshall Volume 2nd Of A Collection Of Scottish Melodies (1845)
C:William Marshall
L:1/8
M:C
O:Scotland
R:Reel
Z:Clark Bernst + Richard Robinson
%%Page:14 - 2
F:http://richardrobinson.tunebook.org.uk/tune/3968
%%TBL:{"version":1,"type":"tune","id":"3968"}
K:C
%%staves {1 2}
V:1
f | \
(ed!trill!cB) c2 [DG]F | EGce fddf | (ed!trill!cB) c2 GF & x6D2 | EcDF ECC :: \
f | \
efge c'ege | 
              [ca]f[cg]e [cf]d[Bd]f |1 efge c'ege | fagf ecc :|2 ecfd gegf | egdf ecc |]
V:2 middle=d clef=bass
L:1/4
z/ | \
[Cc] [Cc] [Cc] [Bb] | [Cc] [Cc] [Ff] [Gg] | \
[Cc] [Cc] [Cc] [Bb] | [Cc] [Gg] [Cc] [Cc]/ :: \
z/ | \
[cc'] [cc'] [cc'] [cc'] | [Ff] [Ee] [Ff] [Gg] | [cc'] [cc'] [cc'] [cc'] | [Ff] [Gg] [Cc] [Cc]/ :| \
[cc'] [=B=b] [_B_b] [Aa] | [Gg] [Gg] [Cc] [Cc]/ |]

